X:3971
T:Gigue
C:Joseph Bodin de Boismorter
R:Gigue, jig
Z:Transcribed by Frank Nordberg - http://www.musicaviva.com
F:http://abc.musicaviva.com/tunes/boismorter-joseph-bodin-de/boismorter-gigue-02/boismorter-gigue-02.abc
V:1 Program 1 73 %Flute
V:2 Program 1 72 %Piccolo
m: Mn = (3n/o/n/
m: Tn2 = o/n//o//n
m: Tn3 = o/n//o//n//o//n//m//n
M:6/8
L:1/8
K:C
V:1
g|efg def|ede c2G|cdc MBAB|c3 G2g|efg def|
V:2
z|z6|z3zzg|efg def|ede c2G|cdc MBAB|
%
V:1
ede c2G|cde edc|g3-g2::d|fgf fed|efg gfe|
V:2
c3 G2g|efg cBA|G3- G2::B|ded dcB|cde edc|
%
V:1
a_ba agf|g3 c'bc'|efg aga|d3 gfg|cde fef|TB3 GAB|
V:2
fgf fed|(e2c) ede|cde fef|B3 ede|Abc dcd|G3 z3|
%
V:1
cBc dcd|Te3 def|gfe Td2c|c2G c3-|c2G c3-|c2G cde|
V:2
z3 GAB|c3 Bcd|edc TB2c|c3- c2g|Te3- e2g|Te3- efg|
%
V:1
dec TB2c|c2G c3-|c2G c3-|c2G cde|dec TB2c|c3-c2:|
V:2
fge Td2c|c3- c2g|Te3- e2g|Te3- efg|fge Td2c|c3-c2:|
W:
W:
W:  From Musica Viva - http://www.musicaviva.com
W:  the Internet center for free sheet music downloads.

